report_00007_2020-12-11T15:55:29.892Z/network-rtt/comparison/sorted/4_vs_5.svg

<svg width="640" height="500" xmlns="http://www.w3.org/2000/svg" xmlns:xlink="http://www.w3.org/1999/xlink"><path fill="#fff" d="M0 0h640v500H0z"/><defs><path id="d" stroke-width=".222" stroke="currentColor" d="M-1-1h2v2h-2z"/><path id="b" stroke-width=".222" stroke="currentColor" d="M0-1.33l-1.33 2h2.66z"/><path id="f" stroke-width=".222" stroke="currentColor" d="M0 1.33L1.265.411.782-1.067l-1.564-.009-.483 1.487z"/><use xlink:href="#b" id="c" stroke="currentColor" transform="rotate(180)"/><use xlink:href="#d" id="e" stroke="currentColor" transform="rotate(45)"/><circle id="a" stroke-width=".222" stroke="currentColor" cx="0" cy="0" r="1"/></defs><g fill="none" color="#000" stroke="currentColor"><path stroke="#000" d="M62.2 419.2h9m543.8 0h-9"/><text transform="translate(53.9 423.1)" stroke="none" fill="#000" font-family="Arial" font-size="12" text-anchor="end"><tspan>0.05</tspan></text></g><g fill="none" color="#000" stroke="currentColor"><path stroke="#000" d="M62.2 335.5h9m543.8 0h-9"/><text transform="translate(53.9 339.4)" stroke="none" fill="#000" font-family="Arial" font-size="12" text-anchor="end"><tspan>0.1</tspan></text></g><g fill="none" color="#000" stroke="currentColor"><path stroke="#000" d="M62.2 251.9h9m543.8 0h-9"/><text transform="translate(53.9 255.8)" stroke="none" fill="#000" font-family="Arial" font-size="12" text-anchor="end"><tspan>0.15</tspan></text></g><g fill="none" color="#000" stroke="currentColor"><path stroke="#000" d="M62.2 168.2h9m543.8 0h-9"/><text transform="translate(53.9 172.1)" stroke="none" fill="#000" font-family="Arial" font-size="12" text-anchor="end"><tspan>0.2</tspan></text></g><g fill="none" color="#000" stroke="currentColor"><path stroke="#000" d="M62.2 84.6h9m543.8 0h-9"/><text transform="translate(53.9 88.5)" stroke="none" fill="#000" font-family="Arial" font-size="12" text-anchor="end"><tspan>0.25</tspan></text></g><g fill="none" color="#000" stroke="currentColor"><path stroke="#000" d="M62.2 446v-9m0-418.9v9"/><text transform="translate(62.2 467.9)" stroke="none" fill="#000" font-family="Arial" font-size="12" text-anchor="middle"><tspan>0</tspan></text></g><g fill="none" color="#000" stroke="currentColor"><path stroke="#000" d="M118 446v-9m0-418.9v9"/><text transform="translate(118 467.9)" stroke="none" fill="#000" font-family="Arial" font-size="12" text-anchor="middle"><tspan>10</tspan></text></g><g fill="none" color="#000" stroke="currentColor"><path stroke="#000" d="M173.9 446v-9m0-418.9v9"/><text transform="translate(173.9 467.9)" stroke="none" fill="#000" font-family="Arial" font-size="12" text-anchor="middle"><tspan>20</tspan></text></g><g fill="none" color="#000" stroke="currentColor"><path stroke="#000" d="M229.7 446v-9m0-418.9v9"/><text transform="translate(229.7 467.9)" stroke="none" fill="#000" font-family="Arial" font-size="12" text-anchor="middle"><tspan>30</tspan></text></g><g fill="none" color="#000" stroke="currentColor"><path stroke="#000" d="M285.6 446v-9m0-418.9v9"/><text transform="translate(285.6 467.9)" stroke="none" fill="#000" font-family="Arial" font-size="12" text-anchor="middle"><tspan>40</tspan></text></g><g fill="none" color="#000" stroke="currentColor"><path stroke="#000" d="M341.4 446v-9m0-418.9v9"/><text transform="translate(341.4 467.9)" stroke="none" fill="#000" font-family="Arial" font-size="12" text-anchor="middle"><tspan>50</tspan></text></g><g fill="none" color="#000" stroke="currentColor"><path stroke="#000" d="M397.2 446v-9m0-418.9v9"/><text transform="translate(397.2 467.9)" stroke="none" fill="#000" font-family="Arial" font-size="12" text-anchor="middle"><tspan>60</tspan></text></g><g fill="none" color="#000" stroke="currentColor"><path stroke="#000" d="M453.1 446v-9m0-418.9v9"/><text transform="translate(453.1 467.9)" stroke="none" fill="#000" font-family="Arial" font-size="12" text-anchor="middle"><tspan>70</tspan></text></g><g fill="none" color="#000" stroke="currentColor"><path stroke="#000" d="M508.9 446v-9m0-418.9v9"/><text transform="translate(508.9 467.9)" stroke="none" fill="#000" font-family="Arial" font-size="12" text-anchor="middle"><tspan>80</tspan></text></g><g fill="none" color="#000" stroke="currentColor"><path stroke="#000" d="M564.7 446v-9m0-418.9v9"/><text transform="translate(564.7 467.9)" stroke="none" fill="#000" font-family="Arial" font-size="12" text-anchor="middle"><tspan>90</tspan></text></g><path stroke="#000" d="M62.2 18.1V446H615V18.1H62.2z" fill="none" color="#000"/><text transform="translate(279.8 485.9)" stroke="none" fill="#000" font-family="Arial" font-size="12" text-anchor="end" color="#000"><tspan>pages+cached+noadtech</tspan></text><path stroke="#9400D3" d="M288.1 482h42.2M62.2 436.8l5.6-8.6 5.6-4 5.6-1.3 5.5-1.4 5.6-5.3 5.6-.2 5.6-.6 5.6-1.2 5.6-2.5 5.5-1.7 5.6-.7 5.6-.3 5.6-.3 5.6-1.2 5.6-.3 5.5-1.1 5.6-.6 5.6-.2 5.6-.7 5.6-.3 5.6-.7 5.5-.5 5.6-.1 5.6-.5 5.6-1.7 5.6-.3 5.6-.2 5.5-.3h11.2l5.6-1.5 5.6-.4 5.6-.7h5.6l5.5-2.1 5.6-.4 5.6-.6 5.6-.2 5.6-.8 5.6-.4h5.5l5.6-.3 5.6-.2 5.6-.1 5.6-.2 5.6-.7h5.5l5.6-2 5.6-.5h5.6l5.6-.2 5.6-.1 5.5-.4 5.6-.1 5.6-.2 5.6-.8 5.6-.2 5.6-.5 5.5-.5 5.6-.5 5.6-1.3 5.6-2.2 5.6-1 5.6-1.7 5.5-.2 5.6-.8 5.6-1.5 5.6-.3 5.6-1 5.6-.4 5.6-.6 5.5-1.2 5.6-.9 5.6-.5 5.6-2.8 5.6-1.2 5.6-1.1 5.5-.4 5.6-1.1 5.6-3.2 5.6-5 5.6-7.9 5.6-1.8 5.5-.4 5.6-6.8 5.6-3.1 5.6-2.8 5.6-.2 5.6-4.5 5.5-4 5.6-4.2 5.6-23.4 5.6-7.2 5.6-14.2 5.6-22.9 5.5-9.3 5.6-1 5.6-1.3 5.6-17.9" fill="none" color="#000"/><text transform="translate(529.5 485.9)" stroke="none" fill="#000" font-family="Arial" font-size="12" text-anchor="end" color="#000"><tspan>pages+cached+noexternal</tspan></text><path stroke="#009E73" d="M537.8 482H580M62.2 437.8l5.6-1.7 5.6-16.4 5.6-.8 5.5-.5 5.6-.2 5.6-1.3 5.6-.5 5.6-.2 5.6-.2 5.5-1.3 5.6-1.2 5.6-1.3 5.6-1.5 5.6-3.7 5.6-.4 5.5-2.3 5.6-1h5.6l5.6-.2 5.6-.6 5.6-.9 5.5-.6 5.6-.7 5.6-1.2 5.6-.5 5.6-1 5.6-.8 5.5-.2 5.6-.3h5.6l5.6-.7 5.6-1 5.6-.2 5.6-.5h5.5l5.6-.5h5.6l5.6-.1 5.6-.2 5.6-.3 5.5-.2 5.6-.3 5.6-.4 5.6-1.3 5.6-.5h5.6l5.5-.2 5.6-.1 5.6-.2 5.6-.4 5.6-2 5.6-.1h11.1l5.6-.9 5.6-1.3 5.6-.5h5.6l5.5-.2 5.6-.8 5.6-.7 5.6-.5 5.6-.3 5.6-.2 5.5-.1 5.6-1.2h5.6l5.6-.5 5.6-.4 5.6-.3 5.6-.3 5.5-.4 5.6-1.1 5.6-.2 5.6-.3 5.6-.4 5.6-.6 5.5-1.5 5.6-3.7 5.6-.4 5.6-1.8 5.6-6.4 5.6-2.5 5.5-3 5.6-1.5 5.6-3 5.6-3.7 5.6-2.7 5.6-42.3 5.5-10.7 5.6-16.9 5.6-6.4 5.6-12.2 5.6-10.3 5.6-2.7 5.5-25.6 5.6-28.1 5.6-8.2 5.6-156" fill="none" color="#000"/><g fill="none" color="#000" stroke="currentColor"><path stroke="#000" d="M62.2 18.1V446H615V18.1H62.2z"/></g></svg>

<?xml version="1.0" encoding="utf-8"  standalone="no"?>
<svg 
 width="640" height="500"
 viewBox="0 0 640 500"
 xmlns="http://www.w3.org/2000/svg"
 xmlns:xlink="http://www.w3.org/1999/xlink"
>

<title>Gnuplot</title>
<desc>Produced by GNUPLOT 5.4 patchlevel 0 </desc>

<g id="gnuplot_canvas">

<rect x="0" y="0" width="640" height="500" fill="#ffffff"/>
<defs>

	<circle id='gpDot' r='0.5' stroke-width='0.5' stroke='currentColor'/>
	<path id='gpPt0' stroke-width='0.222' stroke='currentColor' d='M-1,0 h2 M0,-1 v2'/>
	<path id='gpPt1' stroke-width='0.222' stroke='currentColor' d='M-1,-1 L1,1 M1,-1 L-1,1'/>
	<path id='gpPt2' stroke-width='0.222' stroke='currentColor' d='M-1,0 L1,0 M0,-1 L0,1 M-1,-1 L1,1 M-1,1 L1,-1'/>
	<rect id='gpPt3' stroke-width='0.222' stroke='currentColor' x='-1' y='-1' width='2' height='2'/>
	<rect id='gpPt4' stroke-width='0.222' stroke='currentColor' fill='currentColor' x='-1' y='-1' width='2' height='2'/>
	<circle id='gpPt5' stroke-width='0.222' stroke='currentColor' cx='0' cy='0' r='1'/>
	<use xlink:href='#gpPt5' id='gpPt6' fill='currentColor' stroke='none'/>
	<path id='gpPt7' stroke-width='0.222' stroke='currentColor' d='M0,-1.33 L-1.33,0.67 L1.33,0.67 z'/>
	<use xlink:href='#gpPt7' id='gpPt8' fill='currentColor' stroke='none'/>
	<use xlink:href='#gpPt7' id='gpPt9' stroke='currentColor' transform='rotate(180)'/>
	<use xlink:href='#gpPt9' id='gpPt10' fill='currentColor' stroke='none'/>
	<use xlink:href='#gpPt3' id='gpPt11' stroke='currentColor' transform='rotate(45)'/>
	<use xlink:href='#gpPt11' id='gpPt12' fill='currentColor' stroke='none'/>
	<path id='gpPt13' stroke-width='0.222' stroke='currentColor' d='M0,1.330 L1.265,0.411 L0.782,-1.067 L-0.782,-1.076 L-1.265,0.411 z'/>
	<use xlink:href='#gpPt13' id='gpPt14' fill='currentColor' stroke='none'/>
	<filter id='textbox' filterUnits='objectBoundingBox' x='0' y='0' height='1' width='1'>
	  <feFlood flood-color='#FFFFFF' flood-opacity='1' result='bgnd'/>
	  <feComposite in='SourceGraphic' in2='bgnd' operator='atop'/>
	</filter>
	<filter id='greybox' filterUnits='objectBoundingBox' x='0' y='0' height='1' width='1'>
	  <feFlood flood-color='lightgrey' flood-opacity='1' result='grey'/>
	  <feComposite in='SourceGraphic' in2='grey' operator='atop'/>
	</filter>
</defs>
<g fill="none" color="#FFFFFF" stroke="black" stroke-width="1.00" stroke-linecap="butt" stroke-linejoin="miter">
</g>
<g fill="none" color="black" stroke="currentColor" stroke-width="1.00" stroke-linecap="butt" stroke-linejoin="miter">
	<path stroke='black'  d='M62.2,419.2 L71.2,419.2 M615.0,419.2 L606.0,419.2  '/>	<g transform="translate(53.9,423.1)" stroke="none" fill="black" font-family="Arial" font-size="12.00"  text-anchor="end">
		<text><tspan font-family="Arial" > 0.05</tspan></text>
	</g>
</g>
<g fill="none" color="black" stroke="currentColor" stroke-width="1.00" stroke-linecap="butt" stroke-linejoin="miter">
	<path stroke='black'  d='M62.2,335.5 L71.2,335.5 M615.0,335.5 L606.0,335.5  '/>	<g transform="translate(53.9,339.4)" stroke="none" fill="black" font-family="Arial" font-size="12.00"  text-anchor="end">
		<text><tspan font-family="Arial" > 0.1</tspan></text>
	</g>
</g>
<g fill="none" color="black" stroke="currentColor" stroke-width="1.00" stroke-linecap="butt" stroke-linejoin="miter">
	<path stroke='black'  d='M62.2,251.9 L71.2,251.9 M615.0,251.9 L606.0,251.9  '/>	<g transform="translate(53.9,255.8)" stroke="none" fill="black" font-family="Arial" font-size="12.00"  text-anchor="end">
		<text><tspan font-family="Arial" > 0.15</tspan></text>
	</g>
</g>
<g fill="none" color="black" stroke="currentColor" stroke-width="1.00" stroke-linecap="butt" stroke-linejoin="miter">
	<path stroke='black'  d='M62.2,168.2 L71.2,168.2 M615.0,168.2 L606.0,168.2  '/>	<g transform="translate(53.9,172.1)" stroke="none" fill="black" font-family="Arial" font-size="12.00"  text-anchor="end">
		<text><tspan font-family="Arial" > 0.2</tspan></text>
	</g>
</g>
<g fill="none" color="black" stroke="currentColor" stroke-width="1.00" stroke-linecap="butt" stroke-linejoin="miter">
	<path stroke='black'  d='M62.2,84.6 L71.2,84.6 M615.0,84.6 L606.0,84.6  '/>	<g transform="translate(53.9,88.5)" stroke="none" fill="black" font-family="Arial" font-size="12.00"  text-anchor="end">
		<text><tspan font-family="Arial" > 0.25</tspan></text>
	</g>
</g>
<g fill="none" color="black" stroke="currentColor" stroke-width="1.00" stroke-linecap="butt" stroke-linejoin="miter">
	<path stroke='black'  d='M62.2,446.0 L62.2,437.0 M62.2,18.1 L62.2,27.1  '/>	<g transform="translate(62.2,467.9)" stroke="none" fill="black" font-family="Arial" font-size="12.00"  text-anchor="middle">
		<text><tspan font-family="Arial" > 0</tspan></text>
	</g>
</g>
<g fill="none" color="black" stroke="currentColor" stroke-width="1.00" stroke-linecap="butt" stroke-linejoin="miter">
	<path stroke='black'  d='M118.0,446.0 L118.0,437.0 M118.0,18.1 L118.0,27.1  '/>	<g transform="translate(118.0,467.9)" stroke="none" fill="black" font-family="Arial" font-size="12.00"  text-anchor="middle">
		<text><tspan font-family="Arial" > 10</tspan></text>
	</g>
</g>
<g fill="none" color="black" stroke="currentColor" stroke-width="1.00" stroke-linecap="butt" stroke-linejoin="miter">
	<path stroke='black'  d='M173.9,446.0 L173.9,437.0 M173.9,18.1 L173.9,27.1  '/>	<g transform="translate(173.9,467.9)" stroke="none" fill="black" font-family="Arial" font-size="12.00"  text-anchor="middle">
		<text><tspan font-family="Arial" > 20</tspan></text>
	</g>
</g>
<g fill="none" color="black" stroke="currentColor" stroke-width="1.00" stroke-linecap="butt" stroke-linejoin="miter">
	<path stroke='black'  d='M229.7,446.0 L229.7,437.0 M229.7,18.1 L229.7,27.1  '/>	<g transform="translate(229.7,467.9)" stroke="none" fill="black" font-family="Arial" font-size="12.00"  text-anchor="middle">
		<text><tspan font-family="Arial" > 30</tspan></text>
	</g>
</g>
<g fill="none" color="black" stroke="currentColor" stroke-width="1.00" stroke-linecap="butt" stroke-linejoin="miter">
	<path stroke='black'  d='M285.6,446.0 L285.6,437.0 M285.6,18.1 L285.6,27.1  '/>	<g transform="translate(285.6,467.9)" stroke="none" fill="black" font-family="Arial" font-size="12.00"  text-anchor="middle">
		<text><tspan font-family="Arial" > 40</tspan></text>
	</g>
</g>
<g fill="none" color="black" stroke="currentColor" stroke-width="1.00" stroke-linecap="butt" stroke-linejoin="miter">
	<path stroke='black'  d='M341.4,446.0 L341.4,437.0 M341.4,18.1 L341.4,27.1  '/>	<g transform="translate(341.4,467.9)" stroke="none" fill="black" font-family="Arial" font-size="12.00"  text-anchor="middle">
		<text><tspan font-family="Arial" > 50</tspan></text>
	</g>
</g>
<g fill="none" color="black" stroke="currentColor" stroke-width="1.00" stroke-linecap="butt" stroke-linejoin="miter">
	<path stroke='black'  d='M397.2,446.0 L397.2,437.0 M397.2,18.1 L397.2,27.1  '/>	<g transform="translate(397.2,467.9)" stroke="none" fill="black" font-family="Arial" font-size="12.00"  text-anchor="middle">
		<text><tspan font-family="Arial" > 60</tspan></text>
	</g>
</g>
<g fill="none" color="black" stroke="currentColor" stroke-width="1.00" stroke-linecap="butt" stroke-linejoin="miter">
	<path stroke='black'  d='M453.1,446.0 L453.1,437.0 M453.1,18.1 L453.1,27.1  '/>	<g transform="translate(453.1,467.9)" stroke="none" fill="black" font-family="Arial" font-size="12.00"  text-anchor="middle">
		<text><tspan font-family="Arial" > 70</tspan></text>
	</g>
</g>
<g fill="none" color="black" stroke="currentColor" stroke-width="1.00" stroke-linecap="butt" stroke-linejoin="miter">
	<path stroke='black'  d='M508.9,446.0 L508.9,437.0 M508.9,18.1 L508.9,27.1  '/>	<g transform="translate(508.9,467.9)" stroke="none" fill="black" font-family="Arial" font-size="12.00"  text-anchor="middle">
		<text><tspan font-family="Arial" > 80</tspan></text>
	</g>
</g>
<g fill="none" color="black" stroke="currentColor" stroke-width="1.00" stroke-linecap="butt" stroke-linejoin="miter">
	<path stroke='black'  d='M564.7,446.0 L564.7,437.0 M564.7,18.1 L564.7,27.1  '/>	<g transform="translate(564.7,467.9)" stroke="none" fill="black" font-family="Arial" font-size="12.00"  text-anchor="middle">
		<text><tspan font-family="Arial" > 90</tspan></text>
	</g>
</g>
<g fill="none" color="black" stroke="currentColor" stroke-width="1.00" stroke-linecap="butt" stroke-linejoin="miter">
</g>
<g fill="none" color="black" stroke="currentColor" stroke-width="1.00" stroke-linecap="butt" stroke-linejoin="miter">
	<path stroke='black'  d='M62.2,18.1 L62.2,446.0 L615.0,446.0 L615.0,18.1 L62.2,18.1 Z  '/></g>
<g fill="none" color="black" stroke="currentColor" stroke-width="1.00" stroke-linecap="butt" stroke-linejoin="miter">
</g>
	<g id="gnuplot_plot_1" ><title>pages+cached+noadtech</title>
<g fill="none" color="black" stroke="currentColor" stroke-width="1.00" stroke-linecap="butt" stroke-linejoin="miter">
	<g transform="translate(279.8,485.9)" stroke="none" fill="black" font-family="Arial" font-size="12.00"  text-anchor="end">
		<text><tspan font-family="Arial" >pages+cached+noadtech</tspan></text>
	</g>
</g>
<g fill="none" color="black" stroke="currentColor" stroke-width="1.00" stroke-linecap="butt" stroke-linejoin="miter">
	<path stroke='rgb(148,   0, 211)'  d='M288.1,482.0 L330.3,482.0 M62.2,436.8 L67.8,428.2 L73.4,424.2 L79.0,422.9 L84.5,421.5 L90.1,416.2
		L95.7,416.0 L101.3,415.4 L106.9,414.2 L112.5,411.7 L118.0,410.0 L123.6,409.3 L129.2,409.0 L134.8,408.7
		L140.4,407.5 L146.0,407.2 L151.5,406.1 L157.1,405.5 L162.7,405.3 L168.3,404.6 L173.9,404.3 L179.5,403.6
		L185.0,403.1 L190.6,403.0 L196.2,402.5 L201.8,400.8 L207.4,400.5 L213.0,400.3 L218.5,400.0 L224.1,400.0
		L229.7,400.0 L235.3,398.5 L240.9,398.1 L246.5,397.4 L252.1,397.4 L257.6,395.3 L263.2,394.9 L268.8,394.3
		L274.4,394.1 L280.0,393.3 L285.6,392.9 L291.1,392.9 L296.7,392.6 L302.3,392.4 L307.9,392.3 L313.5,392.1
		L319.1,391.4 L324.6,391.4 L330.2,389.4 L335.8,388.9 L341.4,388.9 L347.0,388.7 L352.6,388.6 L358.1,388.2
		L363.7,388.1 L369.3,387.9 L374.9,387.1 L380.5,386.9 L386.1,386.4 L391.6,385.9 L397.2,385.4 L402.8,384.1
		L408.4,381.9 L414.0,380.9 L419.6,379.2 L425.1,379.0 L430.7,378.2 L436.3,376.7 L441.9,376.4 L447.5,375.4
		L453.1,375.0 L458.7,374.4 L464.2,373.2 L469.8,372.3 L475.4,371.8 L481.0,369.0 L486.6,367.8 L492.2,366.7
		L497.7,366.3 L503.3,365.2 L508.9,362.0 L514.5,357.0 L520.1,349.1 L525.7,347.3 L531.2,346.9 L536.8,340.1
		L542.4,337.0 L548.0,334.2 L553.6,334.0 L559.2,329.5 L564.7,325.5 L570.3,321.3 L575.9,297.9 L581.5,290.7
		L587.1,276.5 L592.7,253.6 L598.2,244.3 L603.8,243.3 L609.4,242.0 L615.0,224.1  '/></g>
	</g>
	<g id="gnuplot_plot_2" ><title>pages+cached+noexternal</title>
<g fill="none" color="black" stroke="currentColor" stroke-width="1.00" stroke-linecap="butt" stroke-linejoin="miter">
	<g transform="translate(529.5,485.9)" stroke="none" fill="black" font-family="Arial" font-size="12.00"  text-anchor="end">
		<text><tspan font-family="Arial" >pages+cached+noexternal</tspan></text>
	</g>
</g>
<g fill="none" color="black" stroke="currentColor" stroke-width="1.00" stroke-linecap="butt" stroke-linejoin="miter">
	<path stroke='rgb(  0, 158, 115)'  d='M537.8,482.0 L580.0,482.0 M62.2,437.8 L67.8,436.1 L73.4,419.7 L79.0,418.9 L84.5,418.4 L90.1,418.2
		L95.7,416.9 L101.3,416.4 L106.9,416.2 L112.5,416.0 L118.0,414.7 L123.6,413.5 L129.2,412.2 L134.8,410.7
		L140.4,407.0 L146.0,406.6 L151.5,404.3 L157.1,403.3 L162.7,403.3 L168.3,403.1 L173.9,402.5 L179.5,401.6
		L185.0,401.0 L190.6,400.3 L196.2,399.1 L201.8,398.6 L207.4,397.6 L213.0,396.8 L218.5,396.6 L224.1,396.3
		L229.7,396.3 L235.3,395.6 L240.9,394.6 L246.5,394.4 L252.1,393.9 L257.6,393.9 L263.2,393.4 L268.8,393.4
		L274.4,393.3 L280.0,393.1 L285.6,392.8 L291.1,392.6 L296.7,392.3 L302.3,391.9 L307.9,390.6 L313.5,390.1
		L319.1,390.1 L324.6,389.9 L330.2,389.8 L335.8,389.6 L341.4,389.2 L347.0,387.2 L352.6,387.1 L358.1,387.1
		L363.7,387.1 L369.3,386.2 L374.9,384.9 L380.5,384.4 L386.1,384.4 L391.6,384.2 L397.2,383.4 L402.8,382.7
		L408.4,382.2 L414.0,381.9 L419.6,381.7 L425.1,381.6 L430.7,380.4 L436.3,380.4 L441.9,379.9 L447.5,379.5
		L453.1,379.2 L458.7,378.9 L464.2,378.5 L469.8,377.4 L475.4,377.2 L481.0,376.9 L486.6,376.5 L492.2,375.9
		L497.7,374.4 L503.3,370.7 L508.9,370.3 L514.5,368.5 L520.1,362.1 L525.7,359.6 L531.2,356.6 L536.8,355.1
		L542.4,352.1 L548.0,348.4 L553.6,345.7 L559.2,303.4 L564.7,292.7 L570.3,275.8 L575.9,269.4 L581.5,257.2
		L587.1,246.9 L592.7,244.2 L598.2,218.6 L603.8,190.5 L609.4,182.3 L615.0,26.3  '/></g>
	</g>
<g fill="none" color="#FFFFFF" stroke="rgb(  0, 158, 115)" stroke-width="2.00" stroke-linecap="butt" stroke-linejoin="miter">
</g>
<g fill="none" color="black" stroke="currentColor" stroke-width="2.00" stroke-linecap="butt" stroke-linejoin="miter">
</g>
<g fill="none" color="black" stroke="black" stroke-width="1.00" stroke-linecap="butt" stroke-linejoin="miter">
</g>
<g fill="none" color="black" stroke="currentColor" stroke-width="1.00" stroke-linecap="butt" stroke-linejoin="miter">
	<path stroke='black'  d='M62.2,18.1 L62.2,446.0 L615.0,446.0 L615.0,18.1 L62.2,18.1 Z  '/></g>
<g fill="none" color="black" stroke="currentColor" stroke-width="1.00" stroke-linecap="butt" stroke-linejoin="miter">
</g>
</g>
</svg>
